hostizi/Hostizi-logo-White.svg

<?xml version="1.0" encoding="UTF-8"?>
<svg id="Layer_1" xmlns="http://www.w3.org/2000/svg" version="1.1" xmlns:xlink="http://www.w3.org/1999/xlink" width="160" height="46" viewBox="0 0 160 46">
  <!-- Generator: Adobe Illustrator 29.0.1, SVG Export Plug-In . SVG Version: 2.1.0 Build 192)  -->
  <defs>
    <style>
      .st0 {
        fill: #fff;
      }

      .st1 {
        fill: url(#linear-gradient);
      }
    </style>
    <linearGradient id="linear-gradient" x1="14.2" y1="23" x2="31.6" y2="23" gradientUnits="userSpaceOnUse">
      <stop offset="0" stop-color="#0082f8"/>
      <stop offset="1" stop-color="#1c40f2"/>
    </linearGradient>
  </defs>
  <path class="st0" d="M18.2,2.4c2.5-1.5,5.5-1.5,8,0l11.4,6.6c2.4,1.4,3.9,4,3.9,6.8v13.5c0,2.8-1.5,5.4-3.9,6.8l-11.3,6.6c-2.5,1.5-5.5,1.5-8,0l-11.4-6.5c-2.4-1.4-3.9-4-3.9-6.8v-13.6c0-2.8,1.5-5.4,3.9-6.8l11.3-6.6Z"/>
  <path class="st1" d="M25.4,10.2h-.8v9.9h-3.5v-5.9h-6.9v15.1c0,3.6,2.8,6.4,6.2,6.4h.8v-9.4h3.5v6.2h6.9v-15.9c0-3.5-2.8-6.4-6.2-6.4ZM19.6,34.1c-2.2-.4-3.9-2.4-3.9-4.8v-2.9h3.9v7.7ZM30,31h-3.9v-6.2h-10.4v-9h3.9v5.9h10.4v9.3ZM30,20.2h-3.9v-8.3c2.2.4,3.9,2.4,3.9,4.8v3.5Z"/>
  <g>
    <path class="st0" d="M69.3,14.5v15.3h-4.4v-5.8h-6.6v5.7h-4.3v-5.2c0-2.6,1.2-3.9,3.5-3.9h7.5v-6.2h4.3ZM54,21.3v-6.8h4.4v5.2h-.9c-1.1,0-2.6.2-3.5,1.6Z"/>
    <path class="st0" d="M88,18.4v1c-1-1.3-2.4-1.6-3.5-1.6h-7.6c-1.1,0-1.1.9-1.1,1.3v6.4h-1.9c-1.1,0-2.5-.8-2.5-2.7v-4.4c0-2.2,1.6-3.9,3.6-3.9h9.4c2,0,3.6,1.7,3.6,3.9ZM88,22.6v3.2c0,2.1-1.6,3.9-3.6,3.9h-9.4c-2,0-3.6-1.7-3.6-3.9v-.6c.5.8,1.8,1.2,2.5,1.2h8.6c1.1,0,1.1-.9,1.1-1.2v-6.4h.9c2.3,0,3.5,1.3,3.5,3.8Z"/>
    <path class="st0" d="M106.8,14.5c-.5,2.3-1.9,3.3-4.1,3.3h-8.2c-1.9,0-4,.6-4.6,2.7,0-.3,0-.7,0-1.1v-.4c0-2.6,2.2-4.6,4.2-4.6h12.8s0,.1,0,.1ZM106.9,25.2c0,2.6-2.2,4.5-4.2,4.5h-8.7c-1.8,0-3.8-1.4-4.1-3.3h11.6c1.2,0,1.2-1.2,1.2-1.2h0c0-.4,0-1.2-1.2-1.2h-7.5c-1.1,0-2.3-.5-3-1.4-.2-.3-.3-.7-.3-1.1,0-1.9,2-2.6,3.5-2.6v.6c0,.3,0,1.2,1.1,1.2h7.5c2.3,0,4.1,2.1,4.1,4.5Z"/>
    <path class="st0" d="M123.5,14.5c0,1.8-1.8,3.3-3.7,3.3h-13.1c.2-1.7,1.7-3.3,3.5-3.3,0,0,13.3,0,13.3,0ZM117.3,18.8v10.9h-4.3v-10.9h4.3Z"/>
    <path class="st0" d="M124.6,14.5h4.4v3.3h-4.4v-3.3ZM124.6,18.8h4.4v11h-4.4v-11Z"/>
    <path class="st0" d="M130.2,17.8c.2-1.7,1.7-3.3,3.6-3.3h12.4v3.5l-2.4,2.3v-.3c0-1.7-1.8-2.2-3-2.2h-10.6ZM137.2,26.4h9.8c-.1,1.5-1.4,3.3-3.6,3.3h-12.3v-3.3l8.4-7.7h1.3c1,0,2.2.3,2.2,1.6s-.1.6-.2.9l-5.6,5.2Z"/>
    <path class="st0" d="M148.3,14.5h4.4v3.3h-4.4v-3.3ZM148.3,18.8h4.4v11h-4.4v-11Z"/>
  </g>
</svg>

<svg width="160" height="46" viewBox="0 0 160 46" fill="none" xmlns="http://www.w3.org/2000/svg">
<path d="M18.2 2.4C20.7 0.900002 23.7 0.900002 26.2 2.4L37.6 9C40 10.4 41.5 13 41.5 15.8V29.3C41.5 32.1 40 34.7 37.6 36.1L26.3 42.7C23.8 44.2 20.8 44.2 18.3 42.7L6.9 36.2C4.5 34.8 3 32.2 3 29.4V15.8C3 13 4.5 10.4 6.9 9L18.2 2.4Z" fill="white"/>
<path d="M25.4 10.2H24.6V20.1H21.1V14.2H14.2V29.3C14.2 32.9 17 35.7 20.4 35.7H21.2V26.3H24.7V32.5H31.6V16.6C31.6 13.1 28.8 10.2 25.4 10.2ZM19.6 34.1C17.4 33.7 15.7 31.7 15.7 29.3V26.4H19.6V34.1ZM30 31H26.1V24.8H15.7V15.8H19.6V21.7H30V31ZM30 20.2H26.1V11.9C28.3 12.3 30 14.3 30 16.7V20.2Z" fill="#001042"/>
<path d="M69.3 14.5V29.8H64.9V24H58.3V29.7H54V24.5C54 21.9 55.2 20.6 57.5 20.6H65V14.4H69.3V14.5ZM54 21.3V14.5H58.4V19.7H57.5C56.4 19.7 54.9 19.9 54 21.3Z" fill="white"/>
<path d="M88 18.4V19.4C87 18.1 85.6 17.8 84.5 17.8H76.9C75.8 17.8 75.8 18.7 75.8 19.1V25.5H73.9C72.8 25.5 71.4 24.7 71.4 22.8V18.4C71.4 16.2 73 14.5 75 14.5H84.4C86.4 14.5 88 16.2 88 18.4ZM88 22.6V25.8C88 27.9 86.4 29.7 84.4 29.7H75C73 29.7 71.4 28 71.4 25.8V25.2C71.9 26 73.2 26.4 73.9 26.4H82.5C83.6 26.4 83.6 25.5 83.6 25.2V18.8H84.5C86.8 18.8 88 20.1 88 22.6Z" fill="white"/>
<path d="M106.8 14.5C106.3 16.8 104.9 17.8 102.7 17.8H94.5C92.6 17.8 90.5 18.4 89.9 20.5C89.9 20.2 89.9 19.8 89.9 19.4V19C89.9 16.4 92.1 14.4 94.1 14.4H106.9V14.5H106.8ZM106.9 25.2C106.9 27.8 104.7 29.7 102.7 29.7H94C92.2 29.7 90.2 28.3 89.9 26.4H101.5C102.7 26.4 102.7 25.2 102.7 25.2C102.7 24.8 102.7 24 101.5 24H94C92.9 24 91.7 23.5 91 22.6C90.8 22.3 90.7 21.9 90.7 21.5C90.7 19.6 92.7 18.9 94.2 18.9V19.5C94.2 19.8 94.2 20.7 95.3 20.7H102.8C105.1 20.7 106.9 22.8 106.9 25.2Z" fill="white"/>
<path d="M123.5 14.5C123.5 16.3 121.7 17.8 119.8 17.8H106.7C106.9 16.1 108.4 14.5 110.2 14.5H123.5ZM117.3 18.8V29.7H113V18.8H117.3Z" fill="white"/>
<path d="M124.6 14.5H129V17.8H124.6V14.5ZM124.6 18.8H129V29.8H124.6V18.8Z" fill="white"/>
<path d="M130.2 17.8C130.4 16.1 131.9 14.5 133.8 14.5H146.2V18L143.8 20.3V20C143.8 18.3 142 17.8 140.8 17.8H130.2ZM137.2 26.4H147C146.9 27.9 145.6 29.7 143.4 29.7H131.1V26.4L139.5 18.7H140.8C141.8 18.7 143 19 143 20.3C143 21.6 142.9 20.9 142.8 21.2L137.2 26.4Z" fill="white"/>
<path d="M148.3 14.5H152.7V17.8H148.3V14.5ZM148.3 18.8H152.7V29.8H148.3V18.8Z" fill="white"/>
</svg>
